X:5
T:Irish Jig 005
C:Generated
M:6/8
L:1/8
Q:1/4=104
K:A
|: D ^C B D ^C B | D E ^F A E A | D a D ^C B A | E D ^C B ^C D | ^C B A B ^C D | A D A ^C B A | ^C D E B A A | A A A ^C D E | :|
|: ^C ^G ^C A A A | D ^C B E a E | B A A E ^F ^G | B ^C D E D ^C | D a D A ^F A | E D ^C ^C ^F ^C | B A A B ^C D | B ^C D E D ^C | :|
